src/animals-nature/animal-reptile/1F995.svg

<svg id="emoji" viewBox="0 0 72 72" xmlns="http://www.w3.org/2000/svg">
  <g id="grid">
    <path fill="#b3b3b3" d="M68,4V68H4V4H68m4-4H0V72H72V0Z"/>
    <path fill="none" stroke="#00a5ff" stroke-miterlimit="10" stroke-width="0.1" d="M12.923,10.9583H59.0769A1.9231,1.9231,0,0,1,61,12.8814V59.0352a1.9231,1.9231,0,0,1-1.9231,1.9231H12.9231A1.9231,1.9231,0,0,1,11,59.0352V12.8813A1.923,1.923,0,0,1,12.923,10.9583Z"/>
    <rect x="16" y="4" rx="2.2537" width="40" height="64" fill="none" stroke="#00a5ff" stroke-miterlimit="10" stroke-width="0.1"/>
    <rect x="16" y="4" rx="2.2537" width="40" height="64" transform="translate(72) rotate(90)" fill="none" stroke="#00a5ff" stroke-miterlimit="10" stroke-width="0.1"/>
    <circle cx="36" cy="36" r="29" fill="none" stroke="#00a5ff" stroke-miterlimit="10" stroke-width="0.1"/>
  </g>
  <g id="color">
    <path fill="#A57939" stroke="none" d="M5,52c0,0,15-3,17-10s14.6667-11.1667,20.8333-8.5833c0,0,6.3333,0.5833,8.25-7.4167C53,18,55,9,62,10 s6.1667,6.3333,4.0833,7.1667C64,18,61,18,60,19.5s-2.1667,16.1667-6.5833,19.8333c0,0-4.9167,6.5-4.6667,9.5833 C49,52,50.5833,61.25,47,61c-3.6293-0.2532-3-7-3-8s-8-3-11-1s-2.1667,8-4.5833,8.5S23.5,60.8333,22.75,59.9167 C22,59,23.3494,53.229,22.25,51.25"/>
  </g>
  <g id="hair"/>
  <g id="skin"/>
  <g id="skin-shadow"/>
  <g id="line">
    <path fill="none" stroke="#000000" stroke-linecap="round" stroke-linejoin="round" stroke-width="2" d="M5,52c0,0,15-3,17-10 s14.6667-11.1667,20.8333-8.5833c0,0,6.3333,0.5833,8.25-7.4167C53,18,55,9,62,10s6.1667,6.3333,4.0833,7.1667C64,18,61,18,60,19.5 s-2.1667,16.1667-6.5833,19.8333c0,0-4.9167,6.5-4.6667,9.5833C49,52,50.5833,61.25,47,61c-3.6293-0.2532-3-7-3-8s-8-3-11-1 s-2.1667,8-4.5833,8.5S23.5,60.8333,22.75,59.9167C22,59,23.3494,53.229,22.25,51.25"/>
  </g>
</svg>

<svg viewBox="0 0 72 72" xmlns="http://www.w3.org/2000/svg"><path fill="#b3b3b3" d="M68 4v64H4V4h64m4-4H0v72h72V0z"/><path fill="none" stroke="#00a5ff" stroke-miterlimit="10" stroke-width=".1" d="M12.923 10.958h46.154A1.923 1.923 0 0161 12.881v46.154a1.923 1.923 0 01-1.923 1.923H12.923A1.923 1.923 0 0111 59.035V12.881a1.923 1.923 0 011.923-1.923z"/><rect x="16" y="4" rx="2.254" width="40" height="64" fill="none" stroke="#00a5ff" stroke-miterlimit="10" stroke-width=".1"/><rect x="16" y="4" rx="2.254" width="40" height="64" transform="rotate(90 36 36)" fill="none" stroke="#00a5ff" stroke-miterlimit="10" stroke-width=".1"/><circle cx="36" cy="36" r="29" fill="none" stroke="#00a5ff" stroke-miterlimit="10" stroke-width=".1"/><path d="M5 52s15-3 17-10 14.667-11.167 20.833-8.583c0 0 6.334.583 8.25-7.417C53 18 55 9 62 10s6.167 6.333 4.083 7.167C64 18 61 18 60 19.5s-2.167 16.167-6.583 19.833c0 0-4.917 6.5-4.667 9.584C49 52 50.583 61.25 47 61c-3.63-.253-3-7-3-8s-8-3-11-1-2.167 8-4.583 8.5-4.917.333-5.667-.583c-.75-.917.6-6.688-.5-8.667" stroke-linecap="round" stroke-miterlimit="10" stroke-width="6" stroke="#fff" fill="none" stroke-linejoin="round"/><path fill="#A57939" d="M5 52s15-3 17-10 14.667-11.167 20.833-8.583c0 0 6.334.583 8.25-7.417C53 18 55 9 62 10s6.167 6.333 4.083 7.167C64 18 61 18 60 19.5s-2.167 16.167-6.583 19.833c0 0-4.917 6.5-4.667 9.584C49 52 50.583 61.25 47 61c-3.63-.253-3-7-3-8s-8-3-11-1-2.167 8-4.583 8.5-4.917.333-5.667-.583c-.75-.917.6-6.688-.5-8.667"/><path fill="none" stroke="#000" stroke-linecap="round" stroke-linejoin="round" stroke-width="2" d="M5 52s15-3 17-10 14.667-11.167 20.833-8.583c0 0 6.334.583 8.25-7.417C53 18 55 9 62 10s6.167 6.333 4.083 7.167C64 18 61 18 60 19.5s-2.167 16.167-6.583 19.833c0 0-4.917 6.5-4.667 9.584C49 52 50.583 61.25 47 61c-3.63-.253-3-7-3-8s-8-3-11-1-2.167 8-4.583 8.5-4.917.333-5.667-.583c-.75-.917.6-6.688-.5-8.667"/></svg>
